X:102
T:Y Galon Drom - The Heavy Heart
M:2/4
L:1/8
Q:90
C:Trad.arr. J.T.
S:Davidsons Musical Miracles 1859
R:Lament
N:Some incidental sharps removed
K:G
B>B B<B | A>B c>B | B>A B>A | G>F GG | B>B B<B | A>B c>B
| B>B B>A | G>F GG || B>A A>G | G>F F<E | E>F (3GAA |
B>E (3EGG | A>G FF | B>A A>G | G>F (3FEE | E>F G>A | B>
E (3EGF | E>^D EE ||
